X: 1
T: Dream Of Ellen
M: 3/4
L: 1/8
R: waltz
K: Dmaj
&quot;D&quot;F4G2 | A4B2 | A6 |z2d2e2 | f4d2 | A4F2 | A4_A2 | &quot;A7&quot;G6 |
E4F2 | G4A2 | G6 | z2z2e2 | e4e2 | f4e2 | &quot;D&quot;d6 | z6 |
&quot;D&quot;F4G2 | A4B2 | A6 | z2d2e2 | f4f2 | &quot;D7&quot;g4f2 | &quot;G&quot;e6 | B6 |
d6 | e4^e2 | &quot;D&quot;f6 | A6 | &quot;em&quot;B2g2f2 | &quot;A7&quot;e2B2c2 | &quot;D&quot;d6- | d2z2z2 |]
